lib/assets/svg/button/vi_add_to_google_wallet_add-wallet-badge.svg

<svg fill="none" height="55" viewBox="0 0 165 55" width="165" xmlns="http://www.w3.org/2000/svg" xmlns:xlink="http://www.w3.org/1999/xlink"><linearGradient id="a" gradientUnits="userSpaceOnUse" x1="37.2843" x2="18.7823" y1="34.0448" y2="55.7227"><stop offset="0" stop-color="#4285f4"/><stop offset="1" stop-color="#1b74e8"/></linearGradient><rect fill="#1f1f1f" height="54" rx="27" width="164" x=".5" y=".5"/><path d="m57 23.791h-36v-5.6454c0-3.0647 2.6422-5.6455 5.7798-5.6455h24.4404c3.1376 0 5.7798 2.5808 5.7798 5.6455z" fill="#34a853"/><path d="m57 29h-36v-6c0-3.2571 2.6422-6 5.7798-6h24.4404c3.1376 0 5.7798 2.7429 5.7798 6z" fill="#fbbc04"/><path d="m57 34h-36v-6c0-3.2571 2.6422-6 5.7798-6h24.4404c3.1376 0 5.7798 2.7429 5.7798 6z" fill="#ea4335"/><path d="m21 25.2409 22.8493 5.1616c2.6302.6452 5.5891 0 7.726-1.613l5.4247-3.8712v12.0974c0 3.0647-2.6301 5.4842-5.7534 5.4842h-24.4932c-3.1233 0-5.7534-2.4195-5.7534-5.4842z" fill="url(#a)"/><path d="m71.951 21.5v-7.956h-2.613v-1.352h6.63v1.352h-2.6v7.956zm5.2948 0v-9.308h1.404v2.548l-.078 1.04h.078c.182-.3207.4593-.585.832-.793.3813-.2167.8016-.325 1.261-.325.8233 0 1.443.247 1.859.741.416.4853.624 1.1223.624 1.911v4.186h-1.391v-4.004c0-.5373-.143-.9273-.429-1.17-.2774-.2513-.6197-.377-1.027-.377-.338 0-.637.0953-.897.286s-.4637.442-.611.754c-.1474.3033-.221.6283-.221.975v3.536zm10.6081.208c-.65 0-1.2307-.1517-1.742-.455-.5114-.3033-.9144-.7193-1.209-1.248-.286-.5287-.429-1.131-.429-1.807 0-.6327.1386-1.2177.416-1.755.2773-.5373.663-.9663 1.157-1.287.5026-.3293 1.079-.494 1.729-.494.6846 0 1.2653.1473 1.742.442.4853.2947.8536.6977 1.105 1.209.2513.5113.377 1.0877.377 1.729 0 .0953-.0044.182-.013.26 0 .078-.0044.1387-.013.182h-5.122c.0693.6587.299 1.1527.689 1.482.3986.3293.8493.494 1.352.494.4506 0 .8233-.0997 1.118-.299.2946-.208.5286-.4637.702-.767l1.157.559c-.286.52-.676.9447-1.17 1.274-.494.3207-1.1094.481-1.846.481zm-.065-5.85c-.468 0-.8667.143-1.196.429-.3294.286-.5504.6673-.663 1.144h3.679c-.0174-.2253-.091-.4593-.221-.702s-.3294-.4463-.598-.611c-.26-.1733-.5937-.26-1.001-.26zm-2.015-2.262v-.091l1.391-1.573h1.235l1.404 1.573v.091h-1.352l-.611-.806h-.13l-.598.806zm6.5285 7.904v-6.63h1.326v.91h.078c.1907-.3207.468-.585.832-.793.364-.2167.767-.325 1.209-.325.494 0 .9143.117 1.261.351s.5937.5287.741.884c.2167-.3467.5113-.637.884-.871.3727-.2427.8277-.364 1.365-.364.7796 0 1.3606.2383 1.7416.715.382.468.572 1.092.572 1.872v4.251h-1.391v-4.017c0-.5287-.117-.9143-.351-1.157-.225-.2513-.541-.377-.9486-.377-.3207 0-.6023.091-.845.273-.2427.1733-.4333.4117-.572.715-.13.3033-.195.6413-.195 1.014v3.549h-1.391v-4.017c0-.5287-.117-.9143-.351-1.157-.234-.2513-.5633-.377-.988-.377-.312 0-.585.091-.819.273s-.4203.4247-.559.728c-.13.3033-.195.6413-.195 1.014v3.536zm16.6396 0-2.743-6.63h1.56l1.859 4.823h.065l1.898-4.823h1.534l-2.769 6.63zm7.035.208c-.477 0-.901-.091-1.274-.273-.373-.1907-.663-.455-.871-.793s-.312-.7237-.312-1.157c0-.468.121-.8667.364-1.196.251-.338.585-.5937 1.001-.767s.875-.26 1.378-.26c.416 0 .78.039 1.092.117.321.078.563.1603.728.247v-.351c0-.4333-.156-.78-.468-1.04s-.715-.39-1.209-.39c-.338 0-.659.078-.962.234-.303.1473-.546.351-.728.611l-.962-.741c.286-.3987.663-.7107 1.131-.936.477-.234.997-.351 1.56-.351.962 0 1.703.2383 2.223.715.52.468.78 1.1267.78 1.976v4.147h-1.365v-.819h-.078c-.173.2687-.433.507-.78.715s-.763.312-1.248.312zm.247-1.144c.364 0 .685-.0867.962-.26s.494-.3987.65-.676c.165-.286.247-.5937.247-.923-.199-.1127-.433-.2037-.702-.273-.269-.078-.555-.117-.858-.117-.572 0-.979.117-1.222.351-.243.2253-.364.5027-.364.832 0 .312.117.5677.351.767s.546.299.936.299zm-.299-6.968-1.04-1.664h1.599l.611 1.664zm8.125 8.112c-.684 0-1.287-.156-1.807-.468s-.927-.7323-1.222-1.261c-.294-.5287-.442-1.1267-.442-1.794 0-.6587.148-1.2523.442-1.781.295-.5373.702-.962 1.222-1.274s1.123-.468 1.807-.468c.676 0 1.274.156 1.794.468s.928.7367 1.222 1.274c.295.5287.442 1.1223.442 1.781 0 .6673-.147 1.2653-.442 1.794-.294.5287-.702.949-1.222 1.261s-1.118.468-1.794.468zm0-1.287c.364 0 .702-.0867 1.014-.26.312-.182.564-.4377.754-.767.2-.338.299-.741.299-1.209s-.099-.8667-.299-1.196c-.19-.338-.442-.5937-.754-.767-.312-.182-.65-.273-1.014-.273s-.706.091-1.027.273c-.312.1733-.567.429-.767.767-.19.3293-.286.728-.286 1.196s.096.871.286 1.209c.2.3293.455.585.767.767.321.1733.663.26 1.027.26z" fill="#fff"/><path d="m73.556 41.5-4.318-12.172h2.04l2.754 8.092.425 1.377h.102l.459-1.377 2.873-8.092h2.04l-4.437 12.172zm7.4918 0v-8.67h1.836v8.67zm.17-10.336.799-2.176h2.074l-1.36 2.176zm13.6488 10.608c-.8727 0-1.6944-.1587-2.465-.476-.7594-.3173-1.4337-.7593-2.023-1.326-.5894-.578-1.054-1.2523-1.394-2.023-.3287-.782-.493-1.6263-.493-2.533s.1643-1.7453.493-2.516c.34-.782.799-1.4563 1.377-2.023.5893-.578 1.2693-1.0257 2.04-1.343.7706-.3173 1.5923-.476 2.465-.476.9293 0 1.785.1643 2.567.493.7933.3287 1.4563.7877 1.989 1.377l-1.292 1.275c-.3967-.442-.8727-.782-1.428-1.02-.544-.238-1.156-.357-1.836-.357-.8047 0-1.547.1927-2.227.578-.68.374-1.2297.9067-1.649 1.598-.408.68-.612 1.4847-.612 2.414s.2096 1.7397.629 2.431c.4193.68.969 1.2127 1.649 1.598.68.374 1.4223.561 2.227.561.7366 0 1.4053-.136 2.006-.408.6006-.2833 1.0823-.68 1.445-1.19.374-.51.6006-1.122.68-1.836h-4.165v-1.649h5.9164c.068.306.102.629.102.969v.017c0 1.1787-.261 2.21-.782 3.094-.5104.8727-1.2188 1.5527-2.1254 2.04-.9067.4873-1.938.731-3.094.731zm11.4744 0c-.895 0-1.683-.204-2.363-.612s-1.212-.9577-1.598-1.649c-.385-.6913-.578-1.4733-.578-2.346 0-.8613.193-1.6377.578-2.329.386-.7027.918-1.258 1.598-1.666s1.468-.612 2.363-.612c.884 0 1.666.204 2.346.612s1.213.9633 1.598 1.666c.386.6913.578 1.4677.578 2.329 0 .8727-.192 1.6547-.578 2.346-.385.6913-.918 1.241-1.598 1.649s-1.462.612-2.346.612zm0-1.683c.476 0 .918-.1133 1.326-.34.408-.238.737-.5723.986-1.003.261-.442.391-.969.391-1.581s-.13-1.1333-.391-1.564c-.249-.442-.578-.7763-.986-1.003-.408-.238-.85-.357-1.326-.357s-.923.119-1.343.357c-.408.2267-.742.561-1.003 1.003-.249.4307-.374.952-.374 1.564s.125 1.139.374 1.581c.261.4307.595.765 1.003 1.003.42.2267.867.34 1.343.34zm10.293 1.683c-.895 0-1.683-.204-2.363-.612s-1.212-.9577-1.598-1.649c-.385-.6913-.578-1.4733-.578-2.346 0-.8613.193-1.6377.578-2.329.386-.7027.918-1.258 1.598-1.666s1.468-.612 2.363-.612c.884 0 1.666.204 2.346.612s1.213.9633 1.598 1.666c.386.6913.578 1.4677.578 2.329 0 .8727-.192 1.6547-.578 2.346-.385.6913-.918 1.241-1.598 1.649s-1.462.612-2.346.612zm0-1.683c.476 0 .918-.1133 1.326-.34.408-.238.737-.5723.986-1.003.261-.442.391-.969.391-1.581s-.13-1.1333-.391-1.564c-.249-.442-.578-.7763-.986-1.003-.408-.238-.85-.357-1.326-.357s-.923.119-1.343.357c-.408.2267-.742.561-1.003 1.003-.249.4307-.374.952-.374 1.564s.125 1.139.374 1.581c.261.4307.595.765 1.003 1.003.42.2267.867.34 1.343.34zm10.123 5.355c-.759 0-1.416-.1247-1.972-.374-.544-.238-.986-.5497-1.326-.935-.34-.374-.583-.7593-.731-1.156l1.7-.714c.182.4533.471.8217.867 1.105.408.2947.896.442 1.462.442.794 0 1.417-.238 1.87-.714.465-.476.697-1.1503.697-2.023v-.833h-.102c-.272.408-.651.7367-1.139.986-.476.238-1.02.357-1.632.357-.736 0-1.411-.187-2.023-.561s-1.105-.8953-1.479-1.564c-.374-.68-.561-1.4733-.561-2.38 0-.918.187-1.7113.561-2.38.374-.68.867-1.207 1.479-1.581s1.287-.561 2.023-.561c.612 0 1.156.1247 1.632.374.488.2493.867.578 1.139.986h.102v-1.088h1.751v8.211c0 .9407-.187 1.7397-.561 2.397-.362.6573-.867 1.156-1.513 1.496s-1.394.51-2.244.51zm.017-5.525c.454 0 .873-.1077 1.258-.323.386-.2267.697-.5497.935-.969.238-.4307.357-.9463.357-1.547 0-.6233-.119-1.1447-.357-1.564-.238-.4307-.549-.7537-.935-.969-.385-.2153-.804-.323-1.258-.323-.453 0-.878.1133-1.275.34-.385.2153-.697.5327-.935.952s-.357.9407-.357 1.564c0 .612.119 1.1333.357 1.564.238.4193.55.7367.935.952.397.2153.822.323 1.275.323zm6.466 1.581v-12.172h1.836v12.172zm7.879.272c-.85 0-1.609-.1983-2.278-.595s-1.196-.9407-1.581-1.632c-.374-.6913-.561-1.479-.561-2.363 0-.8273.181-1.5923.544-2.295s.867-1.2637 1.513-1.683c.657-.4307 1.411-.646 2.261-.646.895 0 1.655.1927 2.278.578.635.3853 1.116.9123 1.445 1.581s.493 1.4223.493 2.261c0 .1247-.006.238-.017.34 0 .102-.006.1813-.017.238h-6.698c.091.8613.391 1.5073.901 1.938.521.4307 1.111.646 1.768.646.589 0 1.077-.1303 1.462-.391.385-.272.691-.6063.918-1.003l1.513.731c-.374.68-.884 1.2353-1.53 1.666-.646.4193-1.451.629-2.414.629zm-.085-7.65c-.612 0-1.133.187-1.564.561s-.72.8727-.867 1.496h4.811c-.023-.2947-.119-.6007-.289-.918s-.431-.5837-.782-.799c-.34-.2267-.776-.34-1.309-.34z" fill="#fff"/><rect height="54" rx="27" stroke="#747775" width="164" x=".5" y=".5"/></svg>

<svg width="165" height="55" viewBox="0 0 165 55" fill="none" xmlns="http://www.w3.org/2000/svg">
<rect x="0.5" y="0.5" width="164" height="54" rx="27" fill="#1F1F1F"/>
<path d="M57 23.791H21V18.1456C21 15.0809 23.6422 12.5001 26.7798 12.5001H51.2202C54.3578 12.5001 57 15.0809 57 18.1456V23.791Z" fill="#34A853"/>
<path d="M57 29H21V23C21 19.7429 23.6422 17 26.7798 17H51.2202C54.3578 17 57 19.7429 57 23V29Z" fill="#FBBC04"/>
<path d="M57 34H21V28C21 24.7429 23.6422 22 26.7798 22H51.2202C54.3578 22 57 24.7429 57 28V34Z" fill="#EA4335"/>
<path d="M21 25.2409L43.8493 30.4025C46.4795 31.0477 49.4384 30.4025 51.5753 28.7895L57 24.9183V37.0157C57 40.0804 54.3699 42.4999 51.2466 42.4999H26.7534C23.6301 42.4999 21 40.0804 21 37.0157V25.2409Z" fill="url(#paint0_linear_1819_24928)"/>
<path d="M71.951 21.5V13.544H69.338V12.192H75.968V13.544H73.368V21.5H71.951ZM77.2458 21.5V12.192H78.6498V14.74L78.5718 15.78H78.6498C78.8318 15.4593 79.1091 15.195 79.4818 14.987C79.8631 14.7703 80.2834 14.662 80.7428 14.662C81.5661 14.662 82.1858 14.909 82.6018 15.403C83.0178 15.8883 83.2258 16.5253 83.2258 17.314V21.5H81.8348V17.496C81.8348 16.9587 81.6918 16.5687 81.4058 16.326C81.1284 16.0747 80.7861 15.949 80.3788 15.949C80.0408 15.949 79.7418 16.0443 79.4818 16.235C79.2218 16.4257 79.0181 16.677 78.8708 16.989C78.7234 17.2923 78.6498 17.6173 78.6498 17.964V21.5H77.2458ZM87.8539 21.708C87.2039 21.708 86.6232 21.5563 86.1119 21.253C85.6005 20.9497 85.1975 20.5337 84.9029 20.005C84.6169 19.4763 84.4739 18.874 84.4739 18.198C84.4739 17.5653 84.6125 16.9803 84.8899 16.443C85.1672 15.9057 85.5529 15.4767 86.0469 15.156C86.5495 14.8267 87.1259 14.662 87.7759 14.662C88.4605 14.662 89.0412 14.8093 89.5179 15.104C90.0032 15.3987 90.3715 15.8017 90.6229 16.313C90.8742 16.8243 90.9999 17.4007 90.9999 18.042C90.9999 18.1373 90.9955 18.224 90.9869 18.302C90.9869 18.38 90.9825 18.4407 90.9739 18.484H85.8519C85.9212 19.1427 86.1509 19.6367 86.5409 19.966C86.9395 20.2953 87.3902 20.46 87.8929 20.46C88.3435 20.46 88.7162 20.3603 89.0109 20.161C89.3055 19.953 89.5395 19.6973 89.7129 19.394L90.8699 19.953C90.5839 20.473 90.1939 20.8977 89.6999 21.227C89.2059 21.5477 88.5905 21.708 87.8539 21.708ZM87.7889 15.858C87.3209 15.858 86.9222 16.001 86.5929 16.287C86.2635 16.573 86.0425 16.9543 85.9299 17.431H89.6089C89.5915 17.2057 89.5179 16.9717 89.3879 16.729C89.2579 16.4863 89.0585 16.2827 88.7899 16.118C88.5299 15.9447 88.1962 15.858 87.7889 15.858ZM85.7739 13.596V13.505L87.1649 11.932H88.3999L89.8039 13.505V13.596H88.4519L87.8409 12.79H87.7109L87.1129 13.596H85.7739ZM92.3024 21.5V14.87H93.6284V15.78H93.7064C93.8971 15.4593 94.1744 15.195 94.5384 14.987C94.9024 14.7703 95.3054 14.662 95.7474 14.662C96.2414 14.662 96.6617 14.779 97.0084 15.013C97.3551 15.247 97.6021 15.5417 97.7494 15.897C97.9661 15.5503 98.2607 15.26 98.6334 15.026C99.0061 14.7833 99.4611 14.662 99.9984 14.662C100.778 14.662 101.359 14.9003 101.74 15.377C102.122 15.845 102.312 16.469 102.312 17.249V21.5H100.921V17.483C100.921 16.9543 100.804 16.5687 100.57 16.326C100.345 16.0747 100.029 15.949 99.6214 15.949C99.3007 15.949 99.0191 16.04 98.7764 16.222C98.5337 16.3953 98.3431 16.6337 98.2044 16.937C98.0744 17.2403 98.0094 17.5783 98.0094 17.951V21.5H96.6184V17.483C96.6184 16.9543 96.5014 16.5687 96.2674 16.326C96.0334 16.0747 95.7041 15.949 95.2794 15.949C94.9674 15.949 94.6944 16.04 94.4604 16.222C94.2264 16.404 94.0401 16.6467 93.9014 16.95C93.7714 17.2533 93.7064 17.5913 93.7064 17.964V21.5H92.3024ZM108.942 21.5L106.199 14.87H107.759L109.618 19.693H109.683L111.581 14.87H113.115L110.346 21.5H108.942ZM115.977 21.708C115.5 21.708 115.076 21.617 114.703 21.435C114.33 21.2443 114.04 20.98 113.832 20.642C113.624 20.304 113.52 19.9183 113.52 19.485C113.52 19.017 113.641 18.6183 113.884 18.289C114.135 17.951 114.469 17.6953 114.885 17.522C115.301 17.3487 115.76 17.262 116.263 17.262C116.679 17.262 117.043 17.301 117.355 17.379C117.676 17.457 117.918 17.5393 118.083 17.626V17.275C118.083 16.8417 117.927 16.495 117.615 16.235C117.303 15.975 116.9 15.845 116.406 15.845C116.068 15.845 115.747 15.923 115.444 16.079C115.141 16.2263 114.898 16.43 114.716 16.69L113.754 15.949C114.04 15.5503 114.417 15.2383 114.885 15.013C115.362 14.779 115.882 14.662 116.445 14.662C117.407 14.662 118.148 14.9003 118.668 15.377C119.188 15.845 119.448 16.5037 119.448 17.353V21.5H118.083V20.681H118.005C117.832 20.9497 117.572 21.188 117.225 21.396C116.878 21.604 116.462 21.708 115.977 21.708ZM116.224 20.564C116.588 20.564 116.909 20.4773 117.186 20.304C117.463 20.1307 117.68 19.9053 117.836 19.628C118.001 19.342 118.083 19.0343 118.083 18.705C117.884 18.5923 117.65 18.5013 117.381 18.432C117.112 18.354 116.826 18.315 116.523 18.315C115.951 18.315 115.544 18.432 115.301 18.666C115.058 18.8913 114.937 19.1687 114.937 19.498C114.937 19.81 115.054 20.0657 115.288 20.265C115.522 20.4643 115.834 20.564 116.224 20.564ZM115.925 13.596L114.885 11.932H116.484L117.095 13.596H115.925ZM124.05 21.708C123.366 21.708 122.763 21.552 122.243 21.24C121.723 20.928 121.316 20.5077 121.021 19.979C120.727 19.4503 120.579 18.8523 120.579 18.185C120.579 17.5263 120.727 16.9327 121.021 16.404C121.316 15.8667 121.723 15.442 122.243 15.13C122.763 14.818 123.366 14.662 124.05 14.662C124.726 14.662 125.324 14.818 125.844 15.13C126.364 15.442 126.772 15.8667 127.066 16.404C127.361 16.9327 127.508 17.5263 127.508 18.185C127.508 18.8523 127.361 19.4503 127.066 19.979C126.772 20.5077 126.364 20.928 125.844 21.24C125.324 21.552 124.726 21.708 124.05 21.708ZM124.05 20.421C124.414 20.421 124.752 20.3343 125.064 20.161C125.376 19.979 125.628 19.7233 125.818 19.394C126.018 19.056 126.117 18.653 126.117 18.185C126.117 17.717 126.018 17.3183 125.818 16.989C125.628 16.651 125.376 16.3953 125.064 16.222C124.752 16.04 124.414 15.949 124.05 15.949C123.686 15.949 123.344 16.04 123.023 16.222C122.711 16.3953 122.456 16.651 122.256 16.989C122.066 17.3183 121.97 17.717 121.97 18.185C121.97 18.653 122.066 19.056 122.256 19.394C122.456 19.7233 122.711 19.979 123.023 20.161C123.344 20.3343 123.686 20.421 124.05 20.421Z" fill="white"/>
<path d="M73.556 41.5L69.238 29.328H71.278L74.032 37.42L74.457 38.797H74.559L75.018 37.42L77.891 29.328H79.931L75.494 41.5H73.556ZM81.0478 41.5V32.83H82.8838V41.5H81.0478ZM81.2178 31.164L82.0168 28.988H84.0908L82.7308 31.164H81.2178ZM94.8666 41.772C93.9939 41.772 93.1722 41.6133 92.4016 41.296C91.6422 40.9787 90.9679 40.5367 90.3786 39.97C89.7892 39.392 89.3246 38.7177 88.9846 37.947C88.6559 37.165 88.4916 36.3207 88.4916 35.414C88.4916 34.5073 88.6559 33.6687 88.9846 32.898C89.3246 32.116 89.7836 31.4417 90.3616 30.875C90.9509 30.297 91.6309 29.8493 92.4016 29.532C93.1722 29.2147 93.9939 29.056 94.8666 29.056C95.7959 29.056 96.6516 29.2203 97.4336 29.549C98.2269 29.8777 98.8899 30.3367 99.4226 30.926L98.1306 32.201C97.7339 31.759 97.2579 31.419 96.7026 31.181C96.1586 30.943 95.5466 30.824 94.8666 30.824C94.0619 30.824 93.3196 31.0167 92.6396 31.402C91.9596 31.776 91.4099 32.3087 90.9906 33C90.5826 33.68 90.3786 34.4847 90.3786 35.414C90.3786 36.3433 90.5882 37.1537 91.0076 37.845C91.4269 38.525 91.9766 39.0577 92.6566 39.443C93.3366 39.817 94.0789 40.004 94.8836 40.004C95.6202 40.004 96.2889 39.868 96.8896 39.596C97.4902 39.3127 97.9719 38.916 98.3346 38.406C98.7086 37.896 98.9352 37.284 99.0146 36.57H94.8496V34.921H100.766C100.834 35.227 100.868 35.55 100.868 35.89V35.907C100.868 37.0857 100.607 38.117 100.086 39.001C99.5756 39.8737 98.8672 40.5537 97.9606 41.041C97.0539 41.5283 96.0226 41.772 94.8666 41.772ZM106.341 41.772C105.446 41.772 104.658 41.568 103.978 41.16C103.298 40.752 102.766 40.2023 102.38 39.511C101.995 38.8197 101.802 38.0377 101.802 37.165C101.802 36.3037 101.995 35.5273 102.38 34.836C102.766 34.1333 103.298 33.578 103.978 33.17C104.658 32.762 105.446 32.558 106.341 32.558C107.225 32.558 108.007 32.762 108.687 33.17C109.367 33.578 109.9 34.1333 110.285 34.836C110.671 35.5273 110.863 36.3037 110.863 37.165C110.863 38.0377 110.671 38.8197 110.285 39.511C109.9 40.2023 109.367 40.752 108.687 41.16C108.007 41.568 107.225 41.772 106.341 41.772ZM106.341 40.089C106.817 40.089 107.259 39.9757 107.667 39.749C108.075 39.511 108.404 39.1767 108.653 38.746C108.914 38.304 109.044 37.777 109.044 37.165C109.044 36.553 108.914 36.0317 108.653 35.601C108.404 35.159 108.075 34.8247 107.667 34.598C107.259 34.36 106.817 34.241 106.341 34.241C105.865 34.241 105.418 34.36 104.998 34.598C104.59 34.8247 104.256 35.159 103.995 35.601C103.746 36.0317 103.621 36.553 103.621 37.165C103.621 37.777 103.746 38.304 103.995 38.746C104.256 39.1767 104.59 39.511 104.998 39.749C105.418 39.9757 105.865 40.089 106.341 40.089ZM116.634 41.772C115.739 41.772 114.951 41.568 114.271 41.16C113.591 40.752 113.059 40.2023 112.673 39.511C112.288 38.8197 112.095 38.0377 112.095 37.165C112.095 36.3037 112.288 35.5273 112.673 34.836C113.059 34.1333 113.591 33.578 114.271 33.17C114.951 32.762 115.739 32.558 116.634 32.558C117.518 32.558 118.3 32.762 118.98 33.17C119.66 33.578 120.193 34.1333 120.578 34.836C120.964 35.5273 121.156 36.3037 121.156 37.165C121.156 38.0377 120.964 38.8197 120.578 39.511C120.193 40.2023 119.66 40.752 118.98 41.16C118.3 41.568 117.518 41.772 116.634 41.772ZM116.634 40.089C117.11 40.089 117.552 39.9757 117.96 39.749C118.368 39.511 118.697 39.1767 118.946 38.746C119.207 38.304 119.337 37.777 119.337 37.165C119.337 36.553 119.207 36.0317 118.946 35.601C118.697 35.159 118.368 34.8247 117.96 34.598C117.552 34.36 117.11 34.241 116.634 34.241C116.158 34.241 115.711 34.36 115.291 34.598C114.883 34.8247 114.549 35.159 114.288 35.601C114.039 36.0317 113.914 36.553 113.914 37.165C113.914 37.777 114.039 38.304 114.288 38.746C114.549 39.1767 114.883 39.511 115.291 39.749C115.711 39.9757 116.158 40.089 116.634 40.089ZM126.757 45.444C125.998 45.444 125.341 45.3193 124.785 45.07C124.241 44.832 123.799 44.5203 123.459 44.135C123.119 43.761 122.876 43.3757 122.728 42.979L124.428 42.265C124.61 42.7183 124.899 43.0867 125.295 43.37C125.703 43.6647 126.191 43.812 126.757 43.812C127.551 43.812 128.174 43.574 128.627 43.098C129.092 42.622 129.324 41.9477 129.324 41.075V40.242H129.222C128.95 40.65 128.571 40.9787 128.083 41.228C127.607 41.466 127.063 41.585 126.451 41.585C125.715 41.585 125.04 41.398 124.428 41.024C123.816 40.65 123.323 40.1287 122.949 39.46C122.575 38.78 122.388 37.9867 122.388 37.08C122.388 36.162 122.575 35.3687 122.949 34.7C123.323 34.02 123.816 33.493 124.428 33.119C125.04 32.745 125.715 32.558 126.451 32.558C127.063 32.558 127.607 32.6827 128.083 32.932C128.571 33.1813 128.95 33.51 129.222 33.918H129.324V32.83H131.075V41.041C131.075 41.9817 130.888 42.7807 130.514 43.438C130.152 44.0953 129.647 44.594 129.001 44.934C128.355 45.274 127.607 45.444 126.757 45.444ZM126.774 39.919C127.228 39.919 127.647 39.8113 128.032 39.596C128.418 39.3693 128.729 39.0463 128.967 38.627C129.205 38.1963 129.324 37.6807 129.324 37.08C129.324 36.4567 129.205 35.9353 128.967 35.516C128.729 35.0853 128.418 34.7623 128.032 34.547C127.647 34.3317 127.228 34.224 126.774 34.224C126.321 34.224 125.896 34.3373 125.499 34.564C125.114 34.7793 124.802 35.0967 124.564 35.516C124.326 35.9353 124.207 36.4567 124.207 37.08C124.207 37.692 124.326 38.2133 124.564 38.644C124.802 39.0633 125.114 39.3807 125.499 39.596C125.896 39.8113 126.321 39.919 126.774 39.919ZM133.24 41.5V29.328H135.076V41.5H133.24ZM141.119 41.772C140.269 41.772 139.51 41.5737 138.841 41.177C138.172 40.7803 137.645 40.2363 137.26 39.545C136.886 38.8537 136.699 38.066 136.699 37.182C136.699 36.3547 136.88 35.5897 137.243 34.887C137.606 34.1843 138.11 33.6233 138.756 33.204C139.413 32.7733 140.167 32.558 141.017 32.558C141.912 32.558 142.672 32.7507 143.295 33.136C143.93 33.5213 144.411 34.0483 144.74 34.717C145.069 35.3857 145.233 36.1393 145.233 36.978C145.233 37.1027 145.227 37.216 145.216 37.318C145.216 37.42 145.21 37.4993 145.199 37.556H138.501C138.592 38.4173 138.892 39.0633 139.402 39.494C139.923 39.9247 140.513 40.14 141.17 40.14C141.759 40.14 142.247 40.0097 142.632 39.749C143.017 39.477 143.323 39.1427 143.55 38.746L145.063 39.477C144.689 40.157 144.179 40.7123 143.533 41.143C142.887 41.5623 142.082 41.772 141.119 41.772ZM141.034 34.122C140.422 34.122 139.901 34.309 139.47 34.683C139.039 35.057 138.75 35.5557 138.603 36.179H143.414C143.391 35.8843 143.295 35.5783 143.125 35.261C142.955 34.9437 142.694 34.6773 142.343 34.462C142.003 34.2353 141.567 34.122 141.034 34.122Z" fill="white"/>
<rect x="0.5" y="0.5" width="164" height="54" rx="27" stroke="#747775"/>
<defs>
<linearGradient id="paint0_linear_1819_24928" x1="37.2843" y1="34.0448" x2="18.7823" y2="55.7227" gradientUnits="userSpaceOnUse">
<stop stop-color="#4285F4"/>
<stop offset="1" stop-color="#1B74E8"/>
</linearGradient>
</defs>
</svg>
